public/images/icon_id_sector_empresa_9.svg

<svg width="42" height="42" viewBox="0 0 42 42" fill="none" xmlns="http://www.w3.org/2000/svg">
<path d="M11.8913 9.0957C9.85688 9.0957 8.20312 10.7232 8.20312 12.7313C8.20312 12.9151 8.26875 13.0857 8.4 13.217C8.53125 13.3482 8.70187 13.4138 8.88563 13.4138C9.26625 13.4138 9.58125 13.112 9.58125 12.7313C9.58125 11.4845 10.6181 10.4738 11.8781 10.4738C12.2588 10.4738 12.5738 10.172 12.5738 9.79133C12.5738 9.4107 12.2588 9.10883 11.8781 9.10883L11.8913 9.0957Z" fill="url(#paint0_linear_133_1155)"/>
<path d="M31.9988 18.3094H19.6088V12.7313C19.6088 8.54439 16.1438 5.14502 11.8913 5.14502C7.63877 5.14502 4.17377 8.55752 4.17377 12.7313V29.7806C4.17377 33.9675 7.63877 37.38 11.8913 37.38C14.6869 37.38 17.2463 35.8969 18.6113 33.5081H31.9988C36.2513 33.5081 39.7163 30.0956 39.7163 25.9088C39.7163 21.7219 36.2513 18.3225 31.9988 18.3225V18.3094ZM38.325 25.9088C38.325 29.3475 35.4769 32.13 31.9856 32.13H24.1106V19.6875H31.9856C35.4769 19.6875 38.325 22.4831 38.325 25.9088ZM22.7325 19.6875V32.13H19.215C19.4644 31.3688 19.5956 30.5813 19.5956 29.7806V19.6875H22.7325ZM5.55189 20.4619V12.7313C5.55189 9.30564 8.40002 6.51002 11.8913 6.51002C15.3825 6.51002 18.2306 9.30564 18.2306 12.7313V20.4619H5.55189ZM18.2175 21.84V29.7806C18.2175 33.2063 15.3694 36.0019 11.8781 36.0019C8.38689 36.0019 5.53877 33.2063 5.53877 29.7806V21.84H18.2044H18.2175Z" fill="url(#paint1_linear_133_1155)"/>
<defs>
<linearGradient id="paint0_linear_133_1155" x1="10.3452" y1="9.0957" x2="12.346" y2="10.343" gradientUnits="userSpaceOnUse">
<stop stop-color="#192644"/>
<stop offset="1" stop-color="#1A4081"/>
</linearGradient>
<linearGradient id="paint1_linear_133_1155" x1="21.5937" y1="5.14502" x2="37.0564" y2="15.646" gradientUnits="userSpaceOnUse">
<stop stop-color="#192644"/>
<stop offset="1" stop-color="#1A4081"/>
</linearGradient>
</defs>
</svg>

<svg xmlns="http://www.w3.org/2000/svg" fill="none" viewBox="0 0 42 42"><path fill="url(#a)" d="M11.9 9.1a3.66 3.66 0 0 0-3.7 3.63.67.67 0 0 0 .69.68c.38 0 .7-.3.7-.68a2.28 2.28 0 0 1 2.29-2.26c.38 0 .7-.3.7-.68a.69.69 0 0 0-.7-.68l.01-.01Z"/><path fill="url(#b)" d="M32 18.3H19.6v-5.57a7.66 7.66 0 0 0-7.7-7.58 7.67 7.67 0 0 0-7.73 7.58v17.05c0 4.19 3.47 7.6 7.72 7.6 2.8 0 5.36-1.48 6.72-3.87H32a7.67 7.67 0 0 0 7.72-7.6A7.66 7.66 0 0 0 32 18.32v-.01Zm6.33 7.6a6.29 6.29 0 0 1-6.34 6.23H24.1V19.69H32a6.3 6.3 0 0 1 6.34 6.22Zm-15.6-6.21v12.44h-3.52c.25-.76.39-1.55.39-2.35v-10.1h3.13Zm-17.18.77v-7.73a6.3 6.3 0 0 1 6.34-6.22 6.3 6.3 0 0 1 6.34 6.22v7.73H5.55Zm12.67 1.38v7.94A6.3 6.3 0 0 1 11.88 36a6.3 6.3 0 0 1-6.34-6.22v-7.94h12.68Z"/><defs><linearGradient id="a" x1="10.35" x2="12.35" y1="9.1" y2="10.34" gradientUnits="userSpaceOnUse"><stop stop-color="#192644"/><stop offset="1" stop-color="#1A4081"/></linearGradient><linearGradient id="b" x1="21.59" x2="37.06" y1="5.15" y2="15.65" gradientUnits="userSpaceOnUse"><stop stop-color="#192644"/><stop offset="1" stop-color="#1A4081"/></linearGradient></defs></svg>
